!!!OTL: EIN MAEDCHEN VON ACHTZEHN JAHREN
!!!ARE: Europa, Mitteleuropa, Deutschland
!!!SCT: F0864
!!!YEM: Copyright 1995, estate of Helmut Schaffrath.
**kern
*ICvox
*Ivox
*M4/4
*k[f#]
*G:
{4d
=1
4g
8b
8b
4b
4dd
=2
4b
4dd
4b}
{4dd
=3
4.dd
8cc
4cc
4b
=4
2a
4r}
{4b
=5
4cc
4ee
4cc
4a
=6
4b
4dd
4b}
{4g
=7
4a
8cc
8cc
4a
4f#
=8
4ee
4dd
4dd}
{4b
=9
4cc
4ee
4cc
4a
=10
4b
4dd
4b}
{4g
=11
4a
8a
8a
4dd
4dd
=12
2g
4r}
==
!!!AGN: erzaehlendes Volks - Lied, Ballade
!!!ONB: ESAC (Essen Associative Code) Database: FINK
!!!AMT: simple quadruple
!!!AIN: vox
!!!EED: Helmut Schaffrath
!!!EEV: 1.0
*-
